X: 1
T: Hole In The Hedge
R: jig
M: 6/8
L: 1/8
K: Cmaj
|:C2E EDE|GEC E2D|C2E EDE|GEC D2E|
C2E EDE|GEG c2c|cde dcA|1 GEC D2E :|2 GEC D2C|
|:c2e dcA|GEG GAB|c2e dcA|GEC D2C|
c2e dcA|GEG GAB|cBc AcA|1 GEC D2C :|2 GEC D2E||


Tune 755	Setting 13866

